X:1
T:Lenox, 66.66.88
T:Lenox, 66.66.88
T:Lewis Edson, circa 1782
T:Public Domain Courtesy of the Cyber Hymnal™
C:Lewis Edson, circa 1782
Z:Public Domain
Z:Courtesy of the Cyber Hymnal™
%%score ( 1 2 ) ( 3 4 )
L:1/8
M:4/4
K:Bb
V:1 treble 
V:2 treble 
V:3 bass 
V:4 bass 
V:1
 [DB]4 | [DB]2 [DB]2 F2 [EG]2 | [CF]6 [DF]2 | [DB]2 [Fc]2 [Fd]2 [Ec]2 | [DB]4 [DB]4 | %5
 [Fd]2 [Ff]2 [Fd]2 [FB]2 | [Fc]6 [Fc]2 | [Fd]2 [GB]2 [Gc]2 [FA]2 | [FB]6 | [DF]2 | %10
 [DB]2 [DB]2 [DB]2 [DF]2 | [EG]2 [EG]2 [EG]2 [DB]2 | [Fc]2 [Fc]2 [Fc]2 [Fd]2 | %13
 [DB]2 [DB]2 [DB]2 F2 | [EG]2 [EG]2 [EG]2 [DB]2 | [Fc]6 [FA]2 | [DB]4 |] %17
V:2
 x4 | x4 F2 x2 | x8 | x8 | x8 | x8 | x8 | x8 | x6 | x2 | x8 | x8 | x8 | x6 F2 | x8 | x8 | x4 |] %17
V:3
 [B,,F,]4 | [B,,F,]2 [B,,B,]2 [D,B,]2 [E,B,]2 | [F,A,]6 [D,A,]2 | G,2 [F,A,]2 B,2 [F,A,]2 | %4
 [B,,B,]4 [B,,B,]4 | B,2 [A,C]2 B,2 [D,B,]2 | [F,A,]6 [F,A,]2 | B,2 [G,B,]2 [E,E]2 [F,C]2 | %8
 [B,,D]6 | [B,,B,]2 | [B,,F,]2 [B,,F,]2 [B,,F,]2 [B,,B,]2 | [E,B,]2 [E,B,]2 [E,B,]2 [B,,B,]2 | %12
 [F,A,]2 [F,A,]2 [F,A,]2 [D,A,]2 | [G,B,]2 [G,B,]2 [G,B,]2 [D,B,]2 | %14
 [E,B,]2 [E,B,]2 [E,B,]2 [B,,B,]2 | [F,A,]6 [F,C]2 | [B,,B,]4 |] %17
V:4
 x4 | x8 | x8 | G,2 x6 | x8 | B,2 x6 | x8 | B,2 x6 | x6 | x2 | x8 | x8 | x8 | x8 | x8 | x8 | x4 |] %17

